img/services/single/1.svg

<svg width="95" height="90" viewBox="0 0 95 90" fill="none" xmlns="http://www.w3.org/2000/svg">
<mask id="mask0_841_5186" style="mask-type:alpha" maskUnits="userSpaceOnUse" x="0" y="17" width="74" height="73">
<rect y="17.1429" width="73.266" height="72.8571" fill="#D9D9D9"/>
</mask>
<g mask="url(#mask0_841_5186)">
<path d="M32.9214 82.762C29.8957 82.762 27.3433 80.509 26.9678 77.5067L26.4263 73.1772C25.7769 72.9276 25.165 72.6281 24.5906 72.2787C24.0162 71.9292 23.4542 71.5548 22.9048 71.1555L18.8566 72.8553C16.0733 74.0241 12.8551 72.9429 11.3419 70.3308L8.40581 65.2625C6.88722 62.6411 7.56105 59.2989 9.97673 57.4707L13.464 54.8314C13.4141 54.482 13.3891 54.145 13.3891 53.8205V51.7987C13.3891 51.4742 13.4141 51.1373 13.464 50.7878L9.97673 48.1486C7.56105 46.3203 6.88722 42.9781 8.40581 40.3567L11.3419 35.2884C12.8551 32.6763 16.0733 31.5952 18.8566 32.7639L22.9048 34.4638C23.4542 34.0644 24.0287 33.69 24.6281 33.3406C25.2275 32.9911 25.8269 32.6916 26.4263 32.442L26.9678 28.1126C27.3433 25.1102 29.8957 22.8572 32.9214 22.8572H38.8127C41.8384 22.8572 44.3908 25.1102 44.7663 28.1126L45.3078 32.442C45.9572 32.6916 46.5691 32.9911 47.1435 33.3406C47.7179 33.69 48.2799 34.0644 48.8293 34.4638L52.8775 32.7639C55.6608 31.5952 58.879 32.6763 60.3922 35.2884L63.3283 40.3567C64.8469 42.9781 64.1731 46.3203 61.7574 48.1486L58.2701 50.7878C58.32 51.1373 58.345 51.4742 58.345 51.7987V53.8205C58.345 54.145 58.2951 54.482 58.1952 54.8314L61.6825 57.4707C64.0981 59.2989 64.772 62.6411 63.2534 65.2625L60.3254 70.3169C58.8087 72.935 55.5801 74.0142 52.7939 72.8343L48.8293 71.1555C48.2799 71.5548 47.7054 71.9292 47.106 72.2787C46.5066 72.6281 45.9072 72.9276 45.3078 73.1772L44.7663 77.5067C44.3908 80.509 41.8384 82.762 38.8127 82.762H32.9214ZM29.0717 75.4405C28.8822 77.586 30.4254 79.4963 32.5628 79.762L36.3719 80.2355C38.5181 80.5022 40.4876 79.0148 40.8183 76.8776L41.6613 71.4287C43.2098 71.0293 43.8717 70.9183 45.1954 70.1446C46.5191 69.3708 47.7304 68.4348 48.8293 67.3365L51.7313 69.2328C53.4141 70.3324 55.6517 70.0122 56.9587 68.4847L58.9539 66.1528C60.4729 64.3774 60.1533 61.6836 58.261 60.3129L54.6736 57.7143C54.9234 57.0154 55.0982 56.2791 55.1981 55.5053C55.298 54.7316 55.348 53.9453 55.348 53.1466C55.348 52.3478 55.298 51.5616 55.1981 50.7878C55.0982 50.0141 54.9234 49.2777 54.6736 48.5788L58.2222 46.1916C59.8541 45.0939 60.4458 42.9727 59.6178 41.1887L58.4068 38.5796C57.4857 36.5949 55.1408 35.7186 53.1438 36.6128L48.8293 38.5448C47.7304 37.3966 46.5191 36.4357 45.1954 35.6619C43.8717 34.8881 42.4356 34.3015 40.8871 33.9022L41.8795 31.37C42.8497 28.8945 41.1795 26.179 38.5325 25.9283L33.8328 25.4832C31.2419 25.2378 29.1104 27.4927 29.501 30.0657L30.1686 34.4638C28.6201 34.8632 27.184 35.4497 25.8603 36.2235C24.5366 36.9973 23.3253 37.9333 22.2264 39.0315L20.2907 36.9313C18.4423 34.9256 15.1727 35.3176 13.8506 37.7033L11.5654 41.8271C10.1721 44.3415 11.8068 47.4609 14.6672 47.7462L16.536 47.9326C16.2863 48.6814 16.1114 49.4302 16.0115 50.179C15.9116 50.9278 15.8617 51.7266 15.8617 52.5752C15.8617 53.3739 15.9116 54.1477 16.0115 54.8965C16.1114 55.6453 16.2863 56.3941 16.536 57.143L13.6341 58.4225C11.6452 59.2995 10.7207 61.6044 11.5523 63.6128L13.2182 67.6361C14.1838 69.9679 17.0409 70.8337 19.1384 69.4302L22.2673 67.3365C23.3663 68.4847 24.5366 68.622 25.8603 69.3958C27.184 70.1695 27.9018 70.7561 29.4503 71.1555L29.0717 75.4405Z" fill="url(#paint0_linear_841_5186)"/>
</g>
<path d="M46.4068 52.8575C46.4068 58.6117 41.7143 63.286 35.9141 63.286C30.1138 63.286 25.4214 58.6117 25.4214 52.8575C25.4214 47.1032 30.1138 42.4289 35.9141 42.4289C41.7143 42.4289 46.4068 47.1032 46.4068 52.8575Z" stroke="url(#paint1_linear_841_5186)" stroke-width="2"/>
<mask id="mask1_841_5186" style="mask-type:alpha" maskUnits="userSpaceOnUse" x="60" y="0" width="35" height="35">
<rect x="60.3369" width="34.6626" height="34.4692" fill="#D9D9D9"/>
</mask>
<g mask="url(#mask1_841_5186)">
<path d="M77.3058 31.0447C75.0782 31.0447 73.1991 29.386 72.9226 27.1755L72.8394 26.5101C72.5322 26.392 72.2427 26.2503 71.9709 26.085C71.6991 25.9196 71.4333 25.7425 71.1733 25.5536L70.5326 25.8226C68.4871 26.6815 66.122 25.887 65.0099 23.9674C63.8939 22.0409 64.3891 19.5846 66.1644 18.2411L66.7068 17.8306C66.6832 17.6652 66.6714 17.5058 66.6714 17.3523V16.3958C66.6714 16.2423 66.6832 16.0828 66.7068 15.9175L66.1644 15.507C64.3891 14.1634 63.8939 11.7072 65.0099 9.7807C66.122 7.86106 68.4871 7.06653 70.5326 7.92545L71.1733 8.1945C71.4333 8.00556 71.705 7.82842 71.9886 7.6631C72.2722 7.49778 72.5558 7.35607 72.8394 7.23798L72.9226 6.57253C73.1991 4.36208 75.0782 2.70337 77.3058 2.70337C79.5335 2.70337 81.4126 4.36208 81.6891 6.57253L81.7723 7.23798C82.0795 7.35607 82.369 7.49778 82.6408 7.6631C82.9126 7.82842 83.1784 8.00556 83.4384 8.1945L84.0791 7.92545C86.1246 7.06653 88.4897 7.86106 89.6017 9.7807C90.7178 11.7072 90.2226 14.1634 88.4473 15.507L87.9049 15.9175C87.9285 16.0828 87.9403 16.2423 87.9403 16.3958V17.3523C87.9403 17.5058 87.9167 17.6652 87.8694 17.8306L88.4165 18.2446C90.1891 19.5862 90.6836 22.0387 89.5693 23.9622C88.4564 25.8833 86.0872 26.6753 84.0428 25.8095L83.4384 25.5536C83.1784 25.7425 82.9067 25.9196 82.6231 26.085C82.3395 26.2503 82.0559 26.392 81.7723 26.5101L81.6891 27.1755C81.4126 29.386 79.5335 31.0447 77.3058 31.0447ZM74.1706 26.679C74.0365 28.1972 75.1286 29.549 76.6411 29.737C78.1598 29.9258 79.5535 28.8733 79.7875 27.3608L80.0471 25.6828C80.7797 25.4939 81.0929 25.4414 81.7191 25.0753C82.3454 24.7092 82.9185 24.2664 83.4384 23.7468L84.2672 24.2884C85.3746 25.012 86.847 24.8013 87.707 23.7962C88.7065 22.6279 88.4962 20.8553 87.2511 19.9534L86.2033 19.1945C86.3215 18.8638 86.4042 18.5155 86.4515 18.1494C86.4987 17.7833 86.5224 17.4113 86.5224 17.0334C86.5224 16.6556 86.4987 16.2836 86.4515 15.9175C86.4042 15.5514 86.3215 15.2031 86.2033 14.8724L87.3584 14.0954C88.4322 13.373 88.8215 11.9773 88.2767 10.8035C87.6706 9.4976 86.1277 8.92103 84.8137 9.50941L83.4384 10.1253C82.9185 9.58204 82.3454 9.1274 81.7191 8.76133C81.0929 8.39525 80.4135 8.11774 79.6809 7.9288L79.7357 7.78885C80.4025 6.08763 79.2546 4.22143 77.4356 4.04915C75.6551 3.88053 74.1902 5.43014 74.4586 7.19834L74.6099 8.1945C73.8773 8.38344 73.1978 8.66095 72.5716 9.02703C71.9453 9.3931 71.3723 9.83593 70.8524 10.3555L70.6575 10.1441C69.4281 8.8101 67.2534 9.07079 66.3742 10.6575L66.2393 10.9009C65.3764 12.4581 66.3887 14.39 68.1602 14.5667C68.042 14.9209 67.9593 15.2752 67.9121 15.6295C67.8648 15.9837 67.8412 16.3616 67.8412 16.7631C67.8412 17.141 67.8648 17.5071 67.9121 17.8614C67.9593 18.2156 68.042 18.5699 68.1602 18.9242L67.6261 19.1597C66.2188 19.7802 65.5647 21.411 66.1531 22.832C66.8362 24.4818 68.8578 25.0944 70.3418 24.1014L70.8717 23.7468C71.3916 24.29 71.9453 24.355 72.5716 24.721C73.1978 25.0871 73.5374 25.3646 74.27 25.5536L74.1706 26.679Z" fill="url(#paint2_linear_841_5186)"/>
</g>
<path d="M81.7657 16.8964C81.7657 19.325 79.7843 21.3034 77.3284 21.3034C74.8725 21.3034 72.8911 19.325 72.8911 16.8964C72.8911 14.4678 74.8725 12.4895 77.3284 12.4895C79.7843 12.4895 81.7657 14.4678 81.7657 16.8964Z" stroke="url(#paint3_linear_841_5186)" stroke-width="2"/>
<path d="M5.74658 30.0001V14.2858C5.74658 8.76292 10.2237 4.28577 15.7466 4.28577H53.154" stroke="url(#paint4_linear_841_5186)" stroke-width="2" stroke-linecap="round"/>
<path d="M83.3223 41.4285V71.4285C83.3223 76.9513 78.8451 81.4285 73.3223 81.4285H57.4637" stroke="url(#paint5_linear_841_5186)" stroke-width="2" stroke-linecap="round"/>
<defs>
<linearGradient id="paint0_linear_841_5186" x1="5.74658" y1="52.8096" x2="65.9875" y2="52.8096" gradientUnits="userSpaceOnUse">
<stop stop-color="#E3255E"/>
<stop offset="0.445" stop-color="#FF2323"/>
<stop offset="1" stop-color="#E2CC00"/>
</linearGradient>
<linearGradient id="paint1_linear_841_5186" x1="24.4214" y1="52.8575" x2="47.4068" y2="52.8575" gradientUnits="userSpaceOnUse">
<stop stop-color="#E3255E"/>
<stop offset="0.445" stop-color="#FF2323"/>
<stop offset="1" stop-color="#E2CC00"/>
</linearGradient>
<linearGradient id="paint2_linear_841_5186" x1="63.0557" y1="16.874" x2="91.556" y2="16.874" gradientUnits="userSpaceOnUse">
<stop stop-color="#E3255E"/>
<stop offset="0.445" stop-color="#FF2323"/>
<stop offset="1" stop-color="#E2CC00"/>
</linearGradient>
<linearGradient id="paint3_linear_841_5186" x1="71.8911" y1="16.8964" x2="82.7657" y2="16.8964" gradientUnits="userSpaceOnUse">
<stop stop-color="#E3255E"/>
<stop offset="0.445" stop-color="#FF2323"/>
<stop offset="1" stop-color="#E2CC00"/>
</linearGradient>
<linearGradient id="paint4_linear_841_5186" x1="5.74658" y1="17.1429" x2="53.154" y2="17.1429" gradientUnits="userSpaceOnUse">
<stop stop-color="#E3255E"/>
<stop offset="0.445" stop-color="#FF2323"/>
<stop offset="1" stop-color="#E2CC00"/>
</linearGradient>
<linearGradient id="paint5_linear_841_5186" x1="83.3223" y1="61.4285" x2="57.4637" y2="61.4285" gradientUnits="userSpaceOnUse">
<stop stop-color="#E3255E"/>
<stop offset="0.445" stop-color="#FF2323"/>
<stop offset="1" stop-color="#E2CC00"/>
</linearGradient>
</defs>
</svg>

<svg width="95" height="90" fill="none" xmlns="http://www.w3.org/2000/svg"><mask id="a" style="mask-type:alpha" maskUnits="userSpaceOnUse" x="0" y="17" width="74" height="73"><path fill="#D9D9D9" d="M0 17.143h73.266V90H0z"/></mask><g mask="url(#a)"><path d="M32.921 82.762a6 6 0 0 1-5.953-5.255l-.542-4.33c-.65-.25-1.261-.549-1.835-.898a24.743 24.743 0 0 1-1.686-1.123l-4.048 1.7a6 6 0 0 1-7.515-2.525l-2.936-5.069a6 6 0 0 1 1.57-7.791l3.488-2.64a7.153 7.153 0 0 1-.075-1.01v-2.022c0-.325.025-.662.075-1.011l-3.487-2.64a6 6 0 0 1-1.571-7.791l2.936-5.069a6 6 0 0 1 7.515-2.524l4.048 1.7c.55-.4 1.124-.774 1.723-1.123.6-.35 1.199-.65 1.798-.899l.542-4.33a6 6 0 0 1 5.953-5.255h5.892a6 6 0 0 1 5.953 5.256l.542 4.329c.65.25 1.261.55 1.836.899.574.349 1.136.723 1.685 1.123l4.048-1.7a6 6 0 0 1 7.515 2.524l2.936 5.069a6 6 0 0 1-1.57 7.792l-3.488 2.639c.05.35.075.686.075 1.01v2.023c0 .324-.05.661-.15 1.01l3.487 2.64a6 6 0 0 1 1.571 7.792l-2.928 5.054a6 6 0 0 1-7.531 2.517l-3.965-1.678c-.55.399-1.124.773-1.723 1.123a15.1 15.1 0 0 1-1.798.898l-.542 4.33a6 6 0 0 1-5.953 5.255H32.92Zm-3.85-7.322a4 4 0 0 0 3.492 4.322l3.809.474a4 4 0 0 0 4.446-3.358l.843-5.45c1.549-.399 2.21-.51 3.534-1.283a17.907 17.907 0 0 0 3.634-2.808l2.902 1.896a4 4 0 0 0 5.228-.748l1.995-2.332a4 4 0 0 0-.693-5.84l-3.587-2.599c.25-.699.424-1.435.524-2.209.1-.773.15-1.56.15-2.358 0-.8-.05-1.585-.15-2.36-.1-.773-.275-1.51-.524-2.208l3.548-2.387a4 4 0 0 0 1.396-5.003l-1.211-2.61a4 4 0 0 0-5.263-1.966l-4.315 1.932a16.643 16.643 0 0 0-3.634-2.883 16.802 16.802 0 0 0-4.308-1.76l.992-2.532c.97-2.476-.7-5.191-3.346-5.442l-4.7-.445a4 4 0 0 0-4.332 4.583l.668 4.398c-1.549.4-2.985.986-4.309 1.76a17.91 17.91 0 0 0-3.634 2.808l-1.935-2.1c-1.849-2.006-5.118-1.614-6.44.771l-2.286 4.124c-1.393 2.515.242 5.634 3.102 5.92l1.869.186c-.25.748-.425 1.497-.524 2.246-.1.749-.15 1.548-.15 2.396 0 .799.05 1.573.15 2.322.1.748.274 1.497.524 2.246l-2.902 1.28a4 4 0 0 0-2.082 5.19l1.666 4.023a4 4 0 0 0 5.92 1.794l3.13-2.094c1.098 1.149 2.269 1.286 3.592 2.06 1.324.773 2.042 1.36 3.59 1.76l-.378 4.284Z" fill="url(#b)"/></g><path d="M46.407 52.858c0 5.754-4.693 10.428-10.493 10.428-5.8 0-10.493-4.674-10.493-10.428 0-5.755 4.693-10.43 10.493-10.43 5.8 0 10.493 4.675 10.493 10.43Z" stroke="url(#c)" stroke-width="2"/><mask id="d" style="mask-type:alpha" maskUnits="userSpaceOnUse" x="60" y="0" width="35" height="35"><path fill="#D9D9D9" d="M60.337 0H95v34.469H60.337z"/></mask><g mask="url(#d)"><path d="M77.306 31.045a4.417 4.417 0 0 1-4.383-3.87l-.084-.665a5.388 5.388 0 0 1-.868-.425 11.736 11.736 0 0 1-.798-.531l-.64.269a4.41 4.41 0 0 1-4.369-7.582l.543-.41a3.387 3.387 0 0 1-.036-.479v-.956c0-.154.012-.313.036-.479l-.543-.41a4.41 4.41 0 0 1 4.369-7.582l.64.27c.26-.19.532-.367.816-.532.283-.165.567-.307.85-.425l.084-.665a4.417 4.417 0 0 1 8.766 0l.083.665c.307.118.597.26.869.425.272.165.537.343.797.531l.641-.269a4.41 4.41 0 0 1 4.368 7.582l-.542.41c.023.166.035.325.035.479v.956c0 .154-.023.313-.07.479l.546.414a4.403 4.403 0 0 1-4.373 7.564l-.605-.255c-.26.189-.531.366-.815.531a7.147 7.147 0 0 1-.85.425l-.084.665a4.417 4.417 0 0 1-4.383 3.87Zm-3.135-4.366a2.83 2.83 0 0 0 5.616.682l.26-1.678c.733-.19 1.046-.242 1.672-.608a8.472 8.472 0 0 0 1.72-1.328l.828.541a2.632 2.632 0 0 0 2.984-4.335l-1.048-.758c.118-.331.201-.68.248-1.046a8.72 8.72 0 0 0 0-2.232 4.998 4.998 0 0 0-.248-1.045l1.155-.777a2.632 2.632 0 0 0-2.544-4.586l-1.376.616a7.872 7.872 0 0 0-1.719-1.364 7.95 7.95 0 0 0-2.038-.832l.055-.14a2.749 2.749 0 1 0-5.277-.59l.15.995a7.95 7.95 0 0 0-2.037.833 8.47 8.47 0 0 0-1.72 1.329l-.195-.212a2.66 2.66 0 0 0-4.283.514l-.135.243c-.863 1.557.15 3.489 1.921 3.666-.118.354-.2.708-.248 1.063-.047.354-.07.732-.07 1.133 0 .378.023.744.07 1.098.047.355.13.709.248 1.063l-.534.236a2.83 2.83 0 1 0 2.716 4.941l.53-.354c.52.543 1.073.608 1.7.974.626.366.965.644 1.698.833l-.1 1.125Z" fill="url(#e)"/></g><path d="M81.766 16.896c0 2.429-1.982 4.407-4.438 4.407-2.456 0-4.437-1.978-4.437-4.407 0-2.428 1.981-4.407 4.437-4.407 2.456 0 4.438 1.979 4.438 4.407Z" stroke="url(#f)" stroke-width="2"/><path d="M5.747 30V14.286c0-5.523 4.477-10 10-10h37.407" stroke="url(#g)" stroke-width="2" stroke-linecap="round"/><path d="M83.322 41.428v30c0 5.523-4.477 10-10 10H57.464" stroke="url(#h)" stroke-width="2" stroke-linecap="round"/><defs><linearGradient id="b" x1="5.747" y1="52.81" x2="65.987" y2="52.81" gradientUnits="userSpaceOnUse"><stop stop-color="#E3255E"/><stop offset=".445" stop-color="#FF2323"/><stop offset="1" stop-color="#E2CC00"/></linearGradient><linearGradient id="c" x1="24.421" y1="52.858" x2="47.407" y2="52.858" gradientUnits="userSpaceOnUse"><stop stop-color="#E3255E"/><stop offset=".445" stop-color="#FF2323"/><stop offset="1" stop-color="#E2CC00"/></linearGradient><linearGradient id="e" x1="63.056" y1="16.874" x2="91.556" y2="16.874" gradientUnits="userSpaceOnUse"><stop stop-color="#E3255E"/><stop offset=".445" stop-color="#FF2323"/><stop offset="1" stop-color="#E2CC00"/></linearGradient><linearGradient id="f" x1="71.891" y1="16.896" x2="82.766" y2="16.896" gradientUnits="userSpaceOnUse"><stop stop-color="#E3255E"/><stop offset=".445" stop-color="#FF2323"/><stop offset="1" stop-color="#E2CC00"/></linearGradient><linearGradient id="g" x1="5.747" y1="17.143" x2="53.154" y2="17.143" gradientUnits="userSpaceOnUse"><stop stop-color="#E3255E"/><stop offset=".445" stop-color="#FF2323"/><stop offset="1" stop-color="#E2CC00"/></linearGradient><linearGradient id="h" x1="83.322" y1="61.428" x2="57.464" y2="61.428" gradientUnits="userSpaceOnUse"><stop stop-color="#E3255E"/><stop offset=".445" stop-color="#FF2323"/><stop offset="1" stop-color="#E2CC00"/></linearGradient></defs></svg>
